build/svg/cmd/nl/sc_underlinedouble.svg

<svg xmlns="http://www.w3.org/2000/svg" viewBox="0 0 16 16"><path d="M8 1C5.784 1 4 2.784 4 5v4c0 2.216 1.784 4 4 4s4-1.784 4-4V5c0-2.216-1.784-4-4-4zm-.5 2h1c.831 0 1.5.892 1.5 2v4c0 1.108-.669 2-1.5 2h-1C6.669 11 6 10.108 6 9V5c0-1.108.669-2 1.5-2z" opacity=".6" stroke="#000" stroke-width="2" stroke-linejoin="round"/><path d="M8 13c-2.216 0-4-1.784-4-4V5c0-2.216 1.784-4 4-4s4 1.784 4 4v4c0 2.216-1.784 4-4 4zm-.5-2h1c.831 0 1.5-.892 1.5-2V5c0-1.108-.669-2-1.5-2h-1C6.669 3 6 3.892 6 5v4c0 1.108.669 2 1.5 2z" fill="#fff"/><path d="M2 12v1h12v-1H2zm0 2v1h12v-1H2z" opacity=".6" stroke="#000" stroke-width="2" stroke-linejoin="round"/><path fill="#fff" d="M2 15h12v-1H2zM2 13h12v-1H2z"/></svg>

<?xml version="1.0" encoding="UTF-8" standalone="no"?>
<svg
   xmlns:dc="http://purl.org/dc/elements/1.1/"
   xmlns:cc="http://creativecommons.org/ns#"
   xmlns:rdf="http://www.w3.org/1999/02/22-rdf-syntax-ns#"
   xmlns:svg="http://www.w3.org/2000/svg"
   xmlns="http://www.w3.org/2000/svg"
   xmlns:sodipodi="http://sodipodi.sourceforge.net/DTD/sodipodi-0.dtd"
   xmlns:inkscape="http://www.inkscape.org/namespaces/inkscape"
   viewBox="0 0 16 16"
   version="1.1"
   id="svg4"
   sodipodi:docname="sc_underlinedouble.svg"
   inkscape:export-filename="/home/jupiter007/Libreoffice yaru theme fullcolor/build/cmd/nl/sc_underlinedouble.png"
   inkscape:export-xdpi="96"
   inkscape:export-ydpi="96"
   inkscape:version="0.92.5 (2060ec1f9f, 2020-04-08)">
  <metadata
     id="metadata10">
    <rdf:RDF>
      <cc:Work
         rdf:about="">
        <dc:format>image/svg+xml</dc:format>
        <dc:type
           rdf:resource="http://purl.org/dc/dcmitype/StillImage" />
      </cc:Work>
    </rdf:RDF>
  </metadata>
  <defs
     id="defs8" />
  <sodipodi:namedview
     pagecolor="#ffffff"
     bordercolor="#666666"
     borderopacity="1"
     objecttolerance="10"
     gridtolerance="10"
     guidetolerance="10"
     inkscape:pageopacity="0"
     inkscape:pageshadow="2"
     inkscape:window-width="1920"
     inkscape:window-height="1011"
     id="namedview6"
     showgrid="true"
     inkscape:zoom="29.5"
     inkscape:cx="4.8234231"
     inkscape:cy="7.2425049"
     inkscape:window-x="0"
     inkscape:window-y="32"
     inkscape:window-maximized="1"
     inkscape:current-layer="svg4">
    <inkscape:grid
       type="xygrid"
       id="grid839" />
  </sodipodi:namedview>
  <path
     style="opacity:0.6;fill:#000000;fill-opacity:1;stroke:#000000;stroke-width:2;stroke-linejoin:round;stroke-miterlimit:4;stroke-dasharray:none;stroke-opacity:1"
     d="M 8 1 C 5.7839998 1 4 2.784 4 5 L 4 9 C 4 11.216 5.7839999 13 8 13 C 10.216 13 12 11.216 12 9 L 12 5 C 12 2.784 10.216 1 8 1 z M 7.5 3 L 8.5 3 C 9.331 3 10 3.892 10 5 L 10 9 C 10 10.108 9.331 11 8.5 11 L 7.5 11 C 6.669 11 6 10.108 6 9 L 6 5 C 6 3.892 6.669 3 7.5 3 z "
     id="path829" />
  <path
     inkscape:connector-curvature="0"
     style="opacity:1;fill:#ffffff;fill-opacity:1;stroke:none;stroke-width:1.49811828;stroke-linejoin:round;stroke-miterlimit:4;stroke-dasharray:none;stroke-opacity:1"
     d="M 8,13 C 5.784,13 3.9999999,11.216 3.9999999,8.9999997 V 4.9999999 c 0,-2.216 1.784,-4 4.0000001,-4 2.216,0 4,1.784 4,4 V 8.9999997 C 12,11.216 10.216,13 8,13 Z M 7.5,11 h 1 C 9.331,11 10,10.108 10,8.9999997 V 4.9999999 c 0,-1.108 -0.669,-2 -1.5,-2 h -1 c -0.831,0 -1.5000001,0.892 -1.5000001,2 V 8.9999997 C 5.9999999,10.108 6.669,11 7.5,11 Z"
     id="rect817" />
  <path
     style="opacity:0.6;fill:#000000;fill-opacity:1;stroke:#000000;stroke-width:2;stroke-linejoin:round;stroke-miterlimit:4;stroke-dasharray:none;stroke-opacity:1"
     d="M 2 12 L 2 13 L 14 13 L 14 12 L 2 12 z M 2 14 L 2 15 L 14 15 L 14 14 L 2 14 z "
     id="path831" />
  <rect
     style="opacity:1;fill:#ffffff;fill-opacity:1;stroke:none;stroke-width:1;stroke-linejoin:round;stroke-miterlimit:4;stroke-dasharray:none;stroke-opacity:1"
     id="rect830"
     width="12"
     height="1"
     x="1.9999998"
     y="-15"
     transform="scale(1,-1)" />
  <rect
     transform="scale(1,-1)"
     y="-13"
     x="1.9999998"
     height="1"
     width="12"
     id="rect837"
     style="opacity:1;fill:#ffffff;fill-opacity:1;stroke:none;stroke-width:1;stroke-linejoin:round;stroke-miterlimit:4;stroke-dasharray:none;stroke-opacity:1" />
</svg>
